X:55
T:Earl's Chair (reel), The  
B:CRE1.142 (Cathaoir an Iarla)
F:file ID: cre.1/055earls
C:Pakie Moloney
S:Ned Stapleton
N:My version of measure 4 would be /AFdB ADFA/
M:C
L:1/8
Q:180
R:reel
K:D
FA|B2dA BAFA|B2dA BAFB|AFF2 DFF2|BAdA BAFA|
B2dA BAFA|B3A BAFB|A3B defd|edef d2:|
Bd|e3f d2Bd|edef dBAB|e3f d2Bd|edef dBA2|
e2df eBB2|aff2 defg|afbf afed|edef d2:|

%%%

